public/illustrations/_real-estate.svg

<svg width="377" height="132" viewBox="0 0 377 132" fill="none" xmlns="http://www.w3.org/2000/svg">
<path d="M113.141 120.285C110.154 122.82 107.888 124.944 105.467 126.912C103.046 129.021 100.498 129.729 97.5385 128.441C95.2731 127.435 93.0078 126.728 90.4734 125.864C89.3407 126.997 88.0522 128.115 86.9195 129.389C86.07 130.38 85.079 130.947 83.7905 131.357C82.6578 131.641 81.242 131.626 80.1093 131.357C78.6935 131.074 77.2775 130.635 76.0033 130.352C71.4725 129.064 66.9558 128.2 62.2834 127.181C60.4428 126.756 58.6022 126.034 56.7757 125.184C56.2094 124.901 55.6431 124.476 55.2183 123.91C54.7935 123.344 54.3688 122.777 54.2273 122.211C53.9441 121.645 53.944 120.937 53.9581 120.229C53.9723 119.521 54.2414 118.954 54.5387 118.247C55.5298 116.831 56.3935 115.415 57.5262 114.013C60.0889 110.488 63.0763 107.09 66.347 104.13C68.7681 101.738 72.0247 100.888 75.1396 100.194C82.2189 98.6652 89.1708 96.7113 96.1227 94.3185C105.198 91.0903 114.416 88.018 123.619 84.6482C128.15 82.9633 132.694 80.9952 137.367 79.1829C137.65 79.1829 138.075 78.8998 138.216 78.6166C138.358 78.3335 138.641 78.0503 138.641 77.6255C138.924 76.0681 139.363 74.5106 139.646 72.67C139.08 72.5284 138.514 72.3868 137.947 72.3868C133.983 72.5142 130.16 72.0754 126.337 70.9285C121.098 69.6401 116.299 67.0632 112.207 63.651C110.083 62.0794 108.115 60.0972 106.558 57.9734C106.133 57.407 105.708 56.9823 105 56.5575C104.434 56.2743 103.726 55.9912 103.018 55.9771C99.903 55.5381 96.9297 55.0992 93.9564 54.3913C93.39 54.2497 92.8237 54.2497 92.2574 54.3913C91.691 54.3913 91.1247 54.6744 90.7 54.9576C89.1425 55.9487 87.7124 57.0672 86.1549 58.0583C83.309 60.0264 80.4773 60.3096 77.5182 58.4548C74.9696 56.8832 72.4353 55.3258 70.0284 53.7541C68.6125 52.9046 67.1965 52.041 65.7948 51.1914C65.37 50.9083 64.8037 50.7667 64.3789 50.9083C63.8126 50.9083 63.3878 51.1914 62.963 51.6162C61.8303 52.6073 60.6978 53.4427 59.5509 54.2922C56.5634 56.8266 53.4485 57.5203 49.923 55.3965C48.5071 54.547 47.0912 54.1081 45.8169 55.524C45.5337 55.8071 45.1091 55.9487 44.8259 56.0903C41.5552 58.9078 38.0155 58.1857 34.49 56.6141C32.2246 55.6089 30.1151 54.4763 27.7081 53.3294C25.7259 54.1648 23.602 55.0142 21.6057 56.1328C19.0571 57.5345 16.9334 56.685 14.9512 55.255C10.8593 52.4091 6.90906 49.28 2.94464 46.151C1.95353 45.1599 1.11812 44.0271 0.410186 42.7387C-0.58092 40.8981 0.410131 39.0575 1.4154 37.5C3.55335 34.1161 6.1161 31.0013 8.52307 27.9005C9.65576 26.3431 11.5106 25.9325 13.3512 25.5077H14.6255C20.9969 25.2529 27.3682 25.1396 33.598 24.729C38.6951 24.46 43.7923 24.0636 48.8894 23.653H49.4558C55.4024 23.3981 61.349 23.2707 67.4372 23.0158C72.2512 22.8884 77.0651 22.6193 81.7374 22.3645C85.1355 22.237 88.5337 21.968 91.9318 21.8406C95.0467 21.5716 98.0199 21.3027 101.418 21.0195C107.124 10.1315 116.072 2.95308 128.39 0.730185C140.581 -1.49271 151.469 1.38149 161.068 9.05545C179.8 -2.62539 201.463 -1.28034 216.698 12.227C219.388 11.3916 221.937 10.5421 224.641 9.98988C231.154 8.31916 236.959 10.0324 242.467 13.4587C247.125 16.5878 250.509 21.2743 252.335 26.5271C252.901 28.0846 253.043 28.2262 254.601 27.8156C256.724 27.405 258.848 27.405 260.972 27.8439C266.494 28.566 271.152 31.1429 276.108 33.4224C277.948 34.2719 279.789 35.1356 281.615 36.1267C282.323 36.5514 283.173 36.693 284.164 36.7071C285.155 36.7213 285.863 36.424 286.571 35.8718C289.544 34.3285 292.673 32.9268 295.788 31.7941C302.74 28.9907 309.678 26.1874 316.488 23.2282C320.594 21.5433 324.714 19.7168 328.962 18.0319C330.236 17.6072 331.51 17.4798 332.926 17.6214C336.324 18.3435 339.722 19.2071 343.106 20.0708L355.552 23.2282L361.215 24.6582L370.97 27.1077C371.395 27.2492 371.962 27.3908 372.386 27.6739C375.784 28.8208 376.903 30.9446 376.039 34.3427C375.176 37.7407 374.453 40.8557 373.59 44.098C370.999 54.4196 368.422 64.6137 365.831 74.9353C365.25 77.2007 364.826 79.4661 364.245 81.8731C364.245 82.4394 363.962 83.0058 363.679 83.5721C363.396 84.5632 362.674 85.5543 361.824 86.1207C360.975 86.687 359.842 86.9561 358.709 86.9561C357.576 86.9561 356.444 86.8003 355.311 86.5172C352.338 86.0782 349.506 85.5118 346.533 84.9313C343.984 84.4924 341.577 83.9261 339.029 83.4872C334.781 82.7651 330.533 81.9014 326.442 81.1793C324.176 80.7404 322.052 80.1741 319.787 79.7351C318.796 79.452 317.805 79.2962 316.814 79.2962C315.964 79.2962 315.115 79.2962 314.407 78.8573C313.699 78.5741 312.991 78.0078 312.424 77.4273C310.032 74.8646 307.625 72.3161 305.374 69.6118C303.122 66.9075 301.14 64.6421 299.03 62.0794C296.921 59.5167 294.372 56.8265 291.979 54.2638C290.011 51.9843 288.029 49.5773 285.92 47.1562C285.212 46.3067 284.362 45.5988 283.244 45.1599C279.138 44.4378 275.754 42.4414 272.214 40.7282C270.232 39.723 268.264 38.5903 266.14 37.7266C263.025 36.5798 260.066 35.2913 256.668 35.7161C255.677 35.8577 254.544 36.1267 253.553 36.4099C252.364 52.1259 238.573 65.9447 221.314 62.2068C220.747 62.9147 220.039 63.6227 219.317 64.458C216.896 66.8508 214.772 69.6826 212.209 71.6506C211.502 72.0754 210.935 72.7833 210.638 73.6328C210.355 74.4823 210.355 75.3318 210.638 76.1813C210.779 78.0219 211.049 79.8626 211.19 81.7032C211.459 87.5082 210.015 93.1717 207.311 98.2546C205.173 102.488 202.327 106.311 198.631 109.412C195.078 112.512 190.83 114.764 186.285 116.307C183.029 117.567 179.489 118.119 176.091 117.963H170.286C167.596 117.793 165.047 117.071 162.654 115.939C160.247 114.792 157.854 113.801 155.589 112.937C152.333 114.622 149.345 116.165 146.372 117.581C144.814 118.289 143.115 118.7 141.558 118.558C139.859 118.558 138.301 117.836 136.885 116.986C135.045 115.854 133.218 114.99 131.095 113.716C130.528 114.565 129.962 115.273 129.381 115.84C128.39 117.255 127.385 118.657 126.252 119.931C125.544 120.781 124.553 121.489 123.421 121.758C122.288 122.027 121.155 122.027 120.164 121.758C117.615 120.894 115.067 120.469 112.802 119.889L113.085 120.314L113.141 120.285ZM81.8083 50.9366C83.5073 49.8039 85.2205 48.5437 86.9195 47.411C89.4681 45.8678 92.0309 45.0183 95.1316 45.882C97.8218 46.4625 100.512 47.0288 103.344 47.3261C104.901 47.6093 106.458 48.0482 108.158 48.3314C109.149 48.473 109.998 48.8977 110.848 49.4782C111.697 50.0446 112.264 50.7525 112.816 51.6162C115.067 54.7452 117.899 57.2938 121.141 59.2901C126.932 62.7023 133.728 64.1465 140.383 63.4669C142.79 63.3395 145.055 62.7732 146.202 60.2246C146.202 59.9415 146.485 59.7999 146.627 59.5167C145.508 56.2602 144.106 53.1311 143.696 49.7331C143.696 49.0251 143.271 48.4588 142.705 47.8925C141.147 46.6182 139.887 45.0466 139.179 43.206C138.471 41.3654 138.061 39.3832 138.202 37.401C138.202 35.2772 138.783 33.1533 139.788 31.3127C140.793 29.4721 142.209 27.7873 143.908 26.6546C145.607 25.2387 147.745 24.545 149.869 24.5591C152.417 24.8565 155.249 24.5733 157.359 26.8528C161.323 28.4244 162.442 32.1056 162.994 35.7869C163.829 41.4503 159.412 48.657 153.876 49.9171C153.31 50.0587 152.885 50.3419 152.46 50.7667L153.437 52.8905C155.985 51.6304 158.407 50.2144 160.955 49.0959C161.946 48.8127 162.796 48.2464 163.504 47.411C164.212 46.7031 164.636 45.7121 164.934 44.721C166.647 39.4823 166.675 33.9604 165.273 28.7218C164.013 23.9078 161.054 19.5045 157.104 16.5171C156.538 16.0923 155.971 15.6675 155.547 15.1012C154.98 13.9685 153.989 13.2605 152.87 12.68C148.212 9.97575 142.974 8.53155 137.735 8.23422C134.62 8.07848 131.364 8.48909 128.39 9.48019C120.164 11.8588 113.779 16.5028 110.352 24.4175C109.786 25.9749 108.781 27.2492 107.365 28.2262C105.949 29.2031 104.391 29.6278 102.834 29.6278C99.1526 29.7553 95.4715 30.0243 91.7902 30.1517C87.401 30.4207 83.0118 30.5482 78.481 30.8172L56.9598 31.8649C53.5617 31.9924 50.1637 32.4029 46.7656 32.3888C44.3586 32.3888 42.0932 32.6578 39.8278 32.6436C37.5625 32.6295 34.8724 33.0543 32.4654 33.0401C27.793 33.3091 22.9791 33.4365 18.3067 33.6914H15.7581C14.767 34.9515 13.7617 35.9426 12.9122 36.9337C11.9211 38.0664 11.0574 39.3407 10.7742 40.7424L20.0908 47.5668C21.7898 46.7173 23.3472 46.1651 24.7772 45.3156C25.7683 44.7492 26.7595 44.4802 27.8922 44.3386C29.0249 44.1971 30.0159 44.4944 31.007 44.9192C33.9803 46.3492 36.9395 47.6376 40.196 49.0535C40.9039 48.6287 41.6118 48.2039 42.4613 47.7933C43.7356 47.0854 44.8683 46.2501 46.1567 45.5422C46.8646 45.1174 47.7143 44.8342 48.5638 44.8483C49.4133 44.8625 50.2628 44.8483 50.9707 45.2872C52.3866 45.9952 53.6608 46.5757 55.2041 47.2837C55.6289 47.0005 55.9121 46.5757 56.3369 46.2925C58.4607 44.8908 60.4571 43.3334 62.7224 41.9317C63.2888 41.5069 63.855 41.2237 64.563 41.2237C65.2709 41.2237 65.9789 41.2238 66.5452 41.5211C67.9611 41.9459 69.377 42.5263 70.7928 43.0927C74.6015 45.5138 78.4244 47.935 82.5162 50.4977L81.8083 50.9224V50.9366ZM99.9738 120.668C102.536 118.416 104.943 116.434 107.223 114.041C108.214 113.05 109.347 112.215 110.777 111.932C112.207 111.649 113.609 111.663 114.883 112.088C116.582 112.512 118.281 112.668 119.98 113.234C120.263 113.234 120.405 113.376 120.688 113.376H121.396C121.679 113.376 121.821 113.093 121.962 112.951C122.104 112.81 122.245 112.526 122.387 112.385C123.237 110.827 124.242 109.412 125.233 108.01C127.229 105.051 129.919 104.484 132.751 105.773C135.158 106.92 137.551 108.052 139.816 109.341C140.524 109.907 141.515 110.19 142.365 110.204C143.356 110.204 144.206 110.063 145.055 109.652C146.046 109.369 146.896 108.803 147.745 108.251C149.883 106.141 152.715 105.858 155.122 104.881C155.83 104.598 156.679 104.598 157.387 104.612C158.237 104.612 158.945 104.895 159.511 105.334C161.918 106.622 164.452 107.755 167.001 108.76C169.266 109.624 171.532 110.049 173.797 110.204C180.31 110.516 186.681 108.548 191.934 104.612C196.196 101.511 199.467 97.1361 201.322 92.1806C202.327 88.9241 202.907 85.5261 202.921 82.2696C203.233 75.4734 200.699 69.7958 196.465 64.8262C190.688 57.8743 182.618 55.1417 173.854 54.8302C171.022 54.8302 168.332 55.2408 165.642 56.0762C162.385 56.9115 159.398 58.4547 156.849 60.8617C160.516 66.2561 165.458 69.3852 171.532 71.8205C172.381 70.971 173.089 69.9799 173.811 69.2861C174.944 68.0118 176.374 67.1765 178.073 66.4685C179.63 65.9022 181.329 65.4916 183.029 65.6332C186.285 65.6332 189.542 66.7942 191.934 69.0596C194.327 71.3391 196.026 74.1708 196.72 77.4273C197.145 78.8431 197.272 80.4006 196.989 81.958C195.7 87.3383 192.713 91.2885 186.894 92.8177C185.053 93.2424 183.213 93.3699 181.372 93.0867C179.531 92.8035 177.832 92.223 176.133 91.2319C174.576 90.2408 173.174 88.9524 172.041 87.5365C170.909 85.9791 170.215 84.4216 169.79 82.5669C169.649 81.7173 169.224 80.8679 168.672 80.3015C168.105 79.5936 167.397 79.1688 166.548 78.8715C161.875 77.1583 157.5 74.3124 153.975 70.7586C152.984 69.7675 152.007 68.7622 151.016 67.7711C149.586 70.3196 148.311 72.9957 147.448 75.6858C146.584 78.6591 146.995 81.6324 146.428 84.7473C143.172 86.0074 139.76 87.2675 136.503 88.5277C125.587 93.1575 114.529 97.0794 103.471 100.874C94.6786 104.102 85.7586 106.608 76.6829 108.704C73.2848 109.397 70.1557 111.365 68.0319 114.056C67.0408 115.188 66.0356 116.307 65.0445 117.581C64.9029 118.006 64.7612 118.572 64.6197 118.997L81.0295 123.018C82.0206 122.168 82.8702 121.319 83.7338 120.484C87.1461 116.958 90.2611 116.972 94.0697 118.685C95.7688 119.393 97.4677 119.974 99.4357 120.823L100.002 120.682L99.9738 120.668ZM167.879 15.8516C168.162 16.2763 168.162 16.5595 168.445 16.8427C168.87 17.409 169.295 17.9753 169.578 18.6833C174.363 26.6262 176.034 35.1355 173.585 44.3245V46.4483C188.593 46.2217 199.325 53.202 207.353 65.2651C210.043 63.8634 212.323 61.7396 213.753 59.0636C210.652 56.6425 208.104 53.6691 206.277 50.2569C204.451 46.8447 203.332 43.0219 203.205 39.1991C202.525 30.9871 205.668 24.3467 210.355 18.1311C201.053 8.19173 179.531 7.11567 168.035 15.9931L167.893 15.8516H167.879ZM333.931 27.2209C329.91 42.2149 326.031 57.0672 322.151 72.0612L356.953 78.4184C360.55 64.1324 363.99 49.9879 367.587 35.4187C357.123 32.2614 346.363 30.2508 335.899 27.235H333.917L333.931 27.2209ZM324.289 30.3075C321.458 30.7181 295.505 41.3937 293.664 42.937C300.432 50.7525 307.341 58.5681 314.109 66.2279C314.534 65.9447 314.676 65.8031 314.817 65.6615C317.975 54.0656 320.99 42.3281 324.289 30.2933V30.3075ZM223.098 18.8957C223.381 19.6036 223.664 20.1699 223.947 20.7363C227.756 26.5555 228.86 33.21 229.257 40.0061C229.242 43.9705 228.662 47.9349 227.232 51.7436C226.807 52.5931 226.665 53.4427 226.935 54.2922C234.58 55.8779 244.661 47.85 245.256 38.0806C243.132 37.6417 241.433 36.6505 241.022 34.2436C240.612 31.4118 242.594 30.2791 244.718 29.4438C243.033 24.2051 239.932 20.3682 234.708 18.6408C230.885 17.2108 226.637 17.3382 222.956 18.7399L223.098 18.8815V18.8957ZM218.014 51.5737C219.445 49.0251 220.294 46.3491 220.45 43.5174C221.328 37.4292 220.068 31.1995 216.981 25.8051C216.698 25.3803 216.415 25.0971 215.99 24.814C212.719 28.6226 211.148 33.5781 211.544 38.6752C211.955 43.6307 214.206 48.3173 218.014 51.7295V51.5737ZM179.531 82.4395C182.632 85.1438 185.747 85.0163 187.46 82.043H183.637C182.363 82.0288 180.806 81.4484 179.531 82.4395ZM153.097 34.4984C152.389 36.0558 151.809 37.4717 151.101 39.015C151.101 39.1566 150.959 39.4398 150.818 39.7229V40.4309C150.818 40.714 150.959 40.8556 151.101 41.1388C151.242 41.2804 151.384 41.422 151.667 41.5636C154.499 39.8787 155.079 37.3302 152.97 34.6259L153.111 34.4843L153.097 34.4984Z" fill="#102185"/>
<path d="M358.468 51.5169C358.157 57.8883 355.736 63.1128 350.2 66.4967C349.209 67.0631 348.076 67.3321 347.085 67.3321C346.235 67.3321 345.386 67.3321 344.678 66.7516C343.97 66.1711 343.404 65.7605 343.12 64.911C342.837 64.0615 342.837 63.2119 343.12 62.3624C343.404 61.5129 343.828 60.805 344.409 60.097C344.833 59.6723 345.4 59.3891 345.966 59.1059C349.945 56.8547 350.667 51.1913 349.407 47.9349C348.982 46.9438 348.713 45.811 348.571 44.6783C348.571 43.8288 348.713 42.9793 349.152 42.2714C349.591 41.5635 350.284 40.9971 351.134 40.8696C351.984 40.5865 352.833 40.4449 353.683 40.8696C354.532 41.1528 355.24 41.5776 355.806 42.2997C357.35 44.4235 358.199 46.8446 358.327 49.5347V51.6585L358.454 51.5169H358.468Z" fill="#102185"/>
<path d="M332.969 58.0872C333.124 55.8218 334.823 54.6891 337.372 54.7033C338.505 54.7033 339.496 55.2837 340.345 55.9916C341.053 56.8412 341.478 57.8323 341.464 58.965C341.45 60.0977 341.025 61.0888 340.317 61.9383C339.609 62.7878 338.476 63.2126 337.344 63.1984C336.777 63.1984 336.069 63.0568 335.503 62.7737C334.937 62.4905 334.37 62.0658 334.087 61.641C333.662 61.2162 333.379 60.6498 333.237 60.0835C333.096 59.5172 332.954 58.8092 332.954 58.2429V58.1014L332.969 58.0872Z" fill="#102185"/>
<path d="M341.633 50.328C339.509 50.7386 337.258 47.907 337.258 46.0664C337.258 43.9426 339.538 41.8329 341.52 41.9745C343.502 42.1161 345.753 44.254 345.753 46.0946C345.753 48.6432 344.04 50.4838 341.633 50.4697V50.328Z" fill="#102185"/>
</svg>

<svg xmlns="http://www.w3.org/2000/svg" width="377" height="132" fill="none" viewBox="0 0 377 132"><path fill="#102185" d="M113.141 120.285c-2.987 2.535-5.253 4.659-7.674 6.627-2.421 2.109-4.969 2.817-7.928 1.529-2.266-1.006-4.531-1.713-7.066-2.577-1.132 1.133-2.42 2.251-3.553 3.525-.85.991-1.841 1.558-3.13 1.968-1.132.284-2.548.269-3.68 0-1.416-.283-2.832-.722-4.107-1.005-4.53-1.288-9.047-2.152-13.72-3.171-1.84-.425-3.68-1.147-5.507-1.997a4.4 4.4 0 0 1-1.558-1.274c-.425-.566-.85-1.133-.99-1.699-.284-.566-.284-1.274-.27-1.982s.283-1.275.58-1.982c.992-1.416 1.856-2.832 2.988-4.234 2.563-3.525 5.55-6.923 8.821-9.883 2.421-2.392 5.678-3.242 8.793-3.936a183 183 0 0 0 20.983-5.876c9.075-3.228 18.293-6.3 27.496-9.67 4.531-1.685 9.075-3.653 13.748-5.465.283 0 .708-.283.849-.566.142-.284.425-.567.425-.992.283-1.557.722-3.114 1.005-4.955-.566-.142-1.132-.283-1.699-.283-3.964.127-7.787-.312-11.61-1.459-5.239-1.288-10.038-3.865-14.13-7.277a27.2 27.2 0 0 1-5.649-5.678A5.05 5.05 0 0 0 105 56.557c-.566-.283-1.274-.566-1.982-.58-3.115-.439-6.088-.878-9.062-1.586a3.45 3.45 0 0 0-1.699 0c-.566 0-1.132.283-1.557.567-1.558.99-2.988 2.11-4.545 3.1-2.846 1.968-5.678 2.252-8.637.397-2.548-1.572-5.083-3.13-7.49-4.7-1.416-.85-2.832-1.714-4.233-2.564-.425-.283-.991-.424-1.416-.283-.566 0-.991.283-1.416.708-1.133.991-2.265 1.827-3.412 2.676-2.988 2.535-6.102 3.228-9.628 1.105-1.416-.85-2.832-1.289-4.106.127-.283.283-.708.425-.991.566-3.27 2.818-6.81 2.096-10.336.524-2.265-1.005-4.375-2.138-6.782-3.285-1.982.836-4.106 1.685-6.102 2.804-2.549 1.401-4.673.552-6.655-.878-4.092-2.846-8.042-5.975-12.006-9.104A15 15 0 0 1 .41 42.739c-.99-1.84 0-3.681 1.005-5.239 2.138-3.384 4.701-6.499 7.108-9.6 1.133-1.557 2.988-1.967 4.828-2.392h1.274c6.372-.255 12.743-.368 18.973-.779 5.097-.269 10.194-.665 15.291-1.076h.567c5.946-.255 11.893-.382 17.981-.637 4.814-.128 9.628-.397 14.3-.651 3.398-.128 6.797-.397 10.195-.524 3.115-.27 6.088-.538 9.486-.822C107.124 10.133 116.072 2.954 128.39.73c12.191-2.223 23.079.651 32.678 8.325 18.732-11.68 40.395-10.335 55.63 3.172 2.69-.835 5.239-1.685 7.943-2.237 6.513-1.67 12.318.042 17.826 3.469 4.658 3.129 8.042 7.815 9.868 13.068.566 1.558.708 1.7 2.266 1.289 2.123-.411 4.247-.411 6.371.028 5.522.722 10.18 3.299 15.136 5.578 1.84.85 3.681 1.714 5.507 2.705.708.424 1.558.566 2.549.58s1.699-.283 2.407-.835c2.973-1.544 6.102-2.945 9.217-4.078 6.952-2.803 13.89-5.607 20.7-8.566 4.106-1.685 8.226-3.511 12.474-5.196 1.274-.425 2.548-.552 3.964-.41 3.398.721 6.796 1.585 10.18 2.449l12.446 3.157 5.663 1.43 9.755 2.45c.425.141.992.283 1.416.566 3.398 1.147 4.517 3.27 3.653 6.669-.863 3.398-1.586 6.513-2.449 9.755-2.591 10.322-5.168 20.516-7.759 30.837-.581 2.266-1.005 4.531-1.586 6.938 0 .566-.283 1.133-.566 1.7-.283.99-1.005 1.981-1.855 2.548-.849.566-1.982.835-3.115.835s-2.265-.156-3.398-.439c-2.973-.439-5.805-1.005-8.778-1.586-2.549-.439-4.956-1.005-7.504-1.444-4.248-.722-8.496-1.586-12.587-2.308-2.266-.439-4.39-1.005-6.655-1.444a10.8 10.8 0 0 0-2.973-.439c-.85 0-1.699 0-2.407-.439-.708-.283-1.416-.85-1.983-1.43-2.392-2.562-4.799-5.11-7.05-7.815-2.252-2.704-4.234-4.97-6.344-7.533-2.109-2.562-4.658-5.252-7.051-7.815-1.968-2.28-3.95-4.687-6.059-7.108-.708-.85-1.558-1.557-2.676-1.996-4.106-.722-7.49-2.719-11.03-4.432-1.982-1.005-3.95-2.138-6.074-3.001-3.115-1.147-6.074-2.436-9.472-2.01-.991.14-2.124.41-3.115.693-1.189 15.716-14.98 29.535-32.239 25.797-.567.708-1.275 1.416-1.997 2.251-2.421 2.393-4.545 5.225-7.108 7.193-.707.424-1.274 1.132-1.571 1.982a3.93 3.93 0 0 0 0 2.548c.141 1.84.411 3.682.552 5.522.269 5.805-1.175 11.469-3.879 16.552-2.138 4.233-4.984 8.056-8.68 11.157-3.553 3.1-7.801 5.352-12.346 6.895a25.3 25.3 0 0 1-10.194 1.656h-5.805c-2.69-.17-5.239-.892-7.632-2.024a96 96 0 0 0-7.065-3.002c-3.256 1.685-6.244 3.228-9.217 4.644-1.558.708-3.257 1.119-4.814.977-1.699 0-3.257-.722-4.673-1.572-1.84-1.132-3.667-1.996-5.79-3.27-.567.849-1.133 1.557-1.714 2.124-.991 1.415-1.996 2.817-3.129 4.091-.708.85-1.699 1.558-2.831 1.827-1.133.269-2.266.269-3.257 0-2.549-.864-5.097-1.289-7.362-1.869l.283.425zM81.808 50.937c1.7-1.133 3.412-2.393 5.111-3.526 2.55-1.543 5.112-2.393 8.213-1.529 2.69.58 5.38 1.147 8.212 1.444 1.557.283 3.114.722 4.814 1.005.991.142 1.84.567 2.69 1.147.849.567 1.416 1.274 1.968 2.138 2.251 3.13 5.083 5.678 8.325 7.674 5.791 3.412 12.587 4.857 19.242 4.177 2.407-.127 4.672-.694 5.819-3.242 0-.284.283-.425.425-.708-1.119-3.257-2.521-6.386-2.931-9.784 0-.708-.425-1.274-.991-1.84-1.558-1.275-2.818-2.846-3.526-4.687-.708-1.84-1.118-3.823-.977-5.805 0-2.124.581-4.248 1.586-6.088s2.421-3.526 4.12-4.658c1.699-1.416 3.837-2.11 5.961-2.096 2.548.297 5.38.014 7.49 2.294 3.964 1.571 5.083 5.253 5.635 8.934.835 5.663-3.582 12.87-9.118 14.13-.566.142-.991.425-1.416.85l.977 2.124c2.548-1.26 4.97-2.677 7.518-3.795.991-.283 1.841-.85 2.549-1.685.708-.708 1.132-1.699 1.43-2.69 1.713-5.239 1.741-10.76.339-16-1.26-4.813-4.219-9.216-8.169-12.204-.566-.425-1.133-.85-1.557-1.416-.567-1.133-1.558-1.84-2.677-2.421-4.658-2.704-9.896-4.148-15.135-4.446-3.115-.156-6.371.255-9.345 1.246-8.226 2.379-14.611 7.023-18.038 14.938-.566 1.557-1.571 2.831-2.987 3.808a7.87 7.87 0 0 1-4.531 1.402c-3.681.127-7.362.396-11.044.524-4.389.269-8.778.396-13.309.665L56.96 31.865c-3.398.127-6.796.538-10.194.524-2.407 0-4.673.269-6.938.255-2.266-.014-4.956.41-7.363.396-4.672.27-9.486.397-14.158.651h-2.549c-.991 1.26-1.996 2.252-2.846 3.243-.99 1.132-1.855 2.407-2.138 3.808l9.317 6.825c1.699-.85 3.256-1.402 4.686-2.251.991-.567 1.982-.836 3.115-.977s2.124.155 3.115.58c2.973 1.43 5.933 2.719 9.189 4.135.708-.425 1.416-.85 2.265-1.26 1.275-.709 2.407-1.544 3.696-2.252.708-.425 1.557-.708 2.407-.694s1.699 0 2.407.44c1.416.707 2.69 1.288 4.233 1.996.425-.283.708-.708 1.133-.992 2.124-1.401 4.12-2.959 6.385-4.36.567-.425 1.133-.708 1.841-.708s1.416 0 1.982.297c1.416.425 2.832 1.005 4.248 1.572 3.808 2.42 7.631 4.842 11.723 7.405l-.708.424zm18.166 69.731c2.562-2.252 4.969-4.234 7.249-6.627.991-.991 2.124-1.826 3.554-2.109s2.832-.269 4.106.156c1.699.424 3.398.58 5.097 1.146.283 0 .425.142.708.142h.708c.283 0 .425-.283.566-.425.142-.141.283-.425.425-.566.85-1.558 1.855-2.973 2.846-4.375 1.996-2.959 4.686-3.526 7.518-2.237 2.407 1.147 4.8 2.279 7.065 3.568.708.566 1.699.849 2.549.863.991 0 1.841-.141 2.69-.552.991-.283 1.841-.849 2.69-1.401 2.138-2.11 4.97-2.393 7.377-3.37.708-.283 1.557-.283 2.265-.269.85 0 1.558.283 2.124.722 2.407 1.288 4.941 2.421 7.49 3.426 2.265.864 4.531 1.289 6.796 1.444 6.513.312 12.884-1.656 18.137-5.592 4.262-3.101 7.533-7.476 9.388-12.431 1.005-3.257 1.585-6.655 1.599-9.911.312-6.797-2.222-12.474-6.456-17.444-5.777-6.952-13.847-9.684-22.611-9.996-2.832 0-5.522.41-8.212 1.246-3.257.835-6.244 2.379-8.793 4.786 3.667 5.394 8.609 8.523 14.683 10.958.849-.849 1.557-1.84 2.279-2.534 1.133-1.274 2.563-2.11 4.262-2.817 1.557-.567 3.256-.977 4.956-.836 3.256 0 6.513 1.161 8.905 3.427 2.393 2.28 4.092 5.11 4.786 8.367a9.7 9.7 0 0 1 .269 4.531c-1.289 5.38-4.276 9.33-10.095 10.86-1.841.424-3.681.552-5.522.269a14.5 14.5 0 0 1-5.239-1.855 17 17 0 0 1-4.092-3.695c-1.132-1.558-1.826-3.115-2.251-4.97-.141-.85-.566-1.7-1.118-2.265-.567-.708-1.275-1.133-2.124-1.43-4.673-1.714-9.048-4.56-12.573-8.113-.991-.992-1.968-1.997-2.959-2.988-1.43 2.549-2.705 5.225-3.568 7.915-.864 2.973-.453 5.946-1.02 9.061-3.256 1.26-6.668 2.52-9.925 3.78-10.916 4.63-21.974 8.552-33.032 12.347-8.792 3.228-17.712 5.734-26.788 7.83-3.398.693-6.527 2.661-8.651 5.352-.991 1.132-1.996 2.251-2.987 3.525-.142.425-.284.991-.425 1.416l16.41 4.021c.99-.85 1.84-1.699 2.704-2.534 3.412-3.526 6.527-3.512 10.336-1.799 1.699.708 3.398 1.289 5.366 2.138l.566-.141zm67.905-104.816c.283.424.283.707.566.99.425.567.85 1.133 1.133 1.841 4.785 7.943 6.456 16.453 4.007 25.642v2.123c15.008-.226 25.74 6.754 33.768 18.817 2.69-1.402 4.97-3.525 6.4-6.201-3.101-2.422-5.649-5.395-7.476-8.807s-2.945-7.235-3.072-11.058c-.68-8.212 2.463-14.852 7.15-21.068-9.302-9.94-30.824-11.015-42.32-2.138l-.142-.141zM333.931 27.22c-4.021 14.994-7.9 29.846-11.78 44.84l34.802 6.357c3.597-14.286 7.037-28.43 10.634-43-10.464-3.157-21.224-5.167-31.688-8.183h-1.982zm-9.642 3.087c-2.831.41-28.784 11.086-30.625 12.629 6.768 7.816 13.677 15.631 20.445 23.29.425-.282.567-.424.708-.566 3.158-11.595 6.173-23.333 9.472-35.368zM223.098 18.896c.283.708.566 1.274.849 1.84 3.809 5.82 4.913 12.474 5.31 19.27-.015 3.965-.595 7.929-2.025 11.738-.425.85-.567 1.699-.297 2.548 7.645 1.586 17.726-6.442 18.321-16.211-2.124-.44-3.823-1.43-4.234-3.837-.41-2.832 1.572-3.965 3.696-4.8-1.685-5.239-4.786-9.076-10.01-10.803-3.823-1.43-8.071-1.303-11.752.099l.142.142zm-5.084 32.678c1.431-2.549 2.28-5.225 2.436-8.057.878-6.088-.382-12.318-3.469-17.712a3.3 3.3 0 0 0-.991-.991c-3.271 3.809-4.842 8.764-4.446 13.861.411 4.956 2.662 9.642 6.47 13.055zm-38.483 30.865c3.101 2.705 6.216 2.577 7.929-.396h-3.823c-1.274-.014-2.831-.595-4.106.396M153.097 34.5c-.708 1.557-1.288 2.973-1.996 4.516 0 .142-.142.425-.283.708v.708c0 .283.141.425.283.708.141.141.283.283.566.425 2.832-1.685 3.412-4.234 1.303-6.938l.141-.142z"/><path fill="#102185" d="M358.468 51.517c-.311 6.371-2.732 11.596-8.268 14.98a6.43 6.43 0 0 1-3.115.835c-.85 0-1.699 0-2.407-.58s-1.274-.992-1.558-1.841a3.93 3.93 0 0 1 0-2.549c.284-.85.708-1.557 1.289-2.265.424-.425.991-.708 1.557-.991 3.979-2.251 4.701-7.915 3.441-11.171-.425-.991-.694-2.124-.836-3.257 0-.85.142-1.699.581-2.407s1.132-1.274 1.982-1.401c.85-.283 1.699-.425 2.549 0 .849.283 1.557.708 2.123 1.43 1.544 2.124 2.393 4.545 2.521 7.235v2.124l.127-.142zM332.969 58.087c.155-2.265 1.854-3.398 4.403-3.384 1.133 0 2.124.58 2.973 1.289.708.85 1.133 1.84 1.119 2.973s-.439 2.124-1.147 2.973c-.708.85-1.841 1.275-2.973 1.26a4.4 4.4 0 0 1-1.841-.424c-.566-.284-1.133-.708-1.416-1.133-.425-.425-.708-.991-.85-1.557-.141-.567-.283-1.275-.283-1.841V58.1zM341.633 50.328c-2.124.41-4.375-2.421-4.375-4.262 0-2.123 2.28-4.233 4.262-4.092s4.233 2.28 4.233 4.12c0 2.55-1.713 4.39-4.12 4.376z"/></svg>
